X:122
T:Valse  5 temps
C:Trad 2, 15
M:5/4
L:1/4
K:C
G/c/|Bd cee|dfe2G/c/|Bdceg|fB c2||
|:g|fdecg|fdecG/c/|Bdceg|1 fd g2:|2 fBc2||
